symbolic/22x22/actions/preview-render-off.svg

<svg xmlns="http://www.w3.org/2000/svg" width="22" height="22" version="1.1">
 <defs>
  <style id="current-color-scheme" type="text/css">
   .ColorScheme-Text { color:#323a41; } .ColorScheme-Highlight { color:#4285f4; } .ColorScheme-NeutralText { color:#ff9800; } .ColorScheme-PositiveText { color:#4caf50; } .ColorScheme-NegativeText { color:#f44336; }
  </style>
 </defs>
 <path style="fill:currentColor" class="ColorScheme-Text" d="M 5 3 C 3.892 3 3 3.892 3 5 L 3 17 C 3 18.108 3.892 19 5 19 L 17 19 C 18.108 19 19 18.108 19 17 L 19 5 C 19 3.892 18.108 3 17 3 L 5 3 z M 11 5 A 6 6 0 0 1 17 11 A 6 6 0 0 1 11 17 A 6 6 0 0 1 5 11 A 6 6 0 0 1 11 5 z"/>
 <path style="fill:currentColor" class="ColorScheme-Text" d="M 8,8 V 9.414063 L 9.585937,11 8,12.585938 V 14 H 9.414062 L 11,12.414062 12.585938,14 H 14 V 12.585938 L 12.414062,11 14,9.414063 V 8 H 12.585938 L 11,9.585938 9.414062,8 Z"/>
</svg>

<svg xmlns="http://www.w3.org/2000/svg" width="22" height="22"><defs><style id="current-color-scheme" type="text/css">.ColorScheme-Text{color:#323a41}</style></defs><path style="fill:currentColor" class="ColorScheme-Text" d="M5 3c-1.108 0-2 .892-2 2v12c0 1.108.892 2 2 2h12c1.108 0 2-.892 2-2V5c0-1.108-.892-2-2-2H5zm6 2a6 6 0 0 1 6 6 6 6 0 0 1-6 6 6 6 0 0 1-6-6 6 6 0 0 1 6-6z"/><path style="fill:currentColor" class="ColorScheme-Text" d="M8 8v1.414L9.586 11 8 12.586V14h1.414L11 12.414 12.586 14H14v-1.414L12.414 11 14 9.414V8h-1.414L11 9.586 9.414 8z"/></svg>
